assets/images/jw-icon.svg

<svg clip-rule="evenodd" fill-rule="evenodd" stroke-linejoin="round" stroke-miterlimit="2" viewBox="0 0 1024 1024" xmlns="http://www.w3.org/2000/svg" xmlns:xlink="http://www.w3.org/1999/xlink"><linearGradient id="a" gradientTransform="matrix(0 254.68 -254.68 0 127.844 .659988)" gradientUnits="userSpaceOnUse" x1="0" x2="1" y1="0" y2="0"><stop offset="0" stop-color="#fff"/><stop offset="1" stop-color="#fff" stop-opacity="0"/></linearGradient><circle cx="493.647281" cy="508.813313" r="480.466187" stroke-width="1.36015"/><g fill-rule="nonzero"><path d="m225.87 451.35 215.06-433.49 58.18 27.68-215.06 433.46zm-27.17-297.08-134 104.43v5.72l133.55 103.44-37.7 48.67-156.41-126.84v-55.83l158.8-127.8z" fill="#fff" transform="matrix(1.31561 0 0 1.31561 138.059 164.276)"/><g transform="matrix(1.36015 0 0 1.36015 651.408 637.517)"><path d="m246.94 27.638-52.747-25.397c-6.105-2.939-13.402-1.699-18.194 3.092l-172.675 157.44c-4.645 4.235-4.639 11.547.011 15.775l14.105 12.822c3.802 3.457 9.528 3.711 13.622.606l207.941-157.749c6.976-5.292 16.996-.317 16.996 8.44v-.613c0-6.146-3.521-11.749-9.059-14.416z" fill="#0065a9"/><path d="m246.94 228.362-52.747 25.397c-6.105 2.939-13.402 1.699-18.194-3.092l-172.675-157.44c-4.645-4.234-4.639-11.547.011-15.775l14.105-12.822c3.802-3.457 9.528-3.711 13.622-.605l207.941 157.748c6.976 5.292 16.996.317 16.996-8.44v.613c0 6.146-3.521 11.749-9.059 14.416z" fill="#007acc"/><path d="m194.196 253.763c-6.107 2.937-13.404 1.696-18.196-3.096 5.904 5.904 16 1.722 16-6.628v-232.078c0-8.35-10.096-12.532-16-6.628 4.792-4.792 12.089-6.034 18.196-3.097l52.738 25.363c5.542 2.665 9.066 8.27 9.066 14.419v171.965c0 6.149-3.524 11.754-9.066 14.419z" fill="#1f9cf0"/></g></g><path d="m181.378 254.252c4.032 1.57 8.63 1.47 12.699-.488l52.706-25.362c5.539-2.665 9.061-8.27 9.061-14.419v-171.965c0-6.149-3.522-11.754-9.06-14.419l-52.707-25.362c-5.34-2.57-11.591-1.941-16.279 1.467-.669.487-1.307 1.03-1.906 1.629l-100.899 92.053-43.95-33.361c-4.091-3.106-9.814-2.852-13.614.605l-14.096 12.822c-4.648 4.228-4.653 11.541-.011 15.775l38.114 34.773-38.114 34.773c-4.642 4.235-4.637 11.547.011 15.775l14.096 12.822c3.8 3.457 9.523 3.711 13.614.606l43.95-33.362 100.899 92.053c1.596 1.597 3.471 2.8 5.486 3.585zm10.505-184.367-76.56 58.115 76.56 58.115z" fill="url(#a)" opacity=".25" transform="matrix(1.36015 0 0 1.36015 651.408 637.517)"/></svg>

<?xml version="1.0" encoding="UTF-8" standalone="no"?>
<!DOCTYPE svg PUBLIC "-//W3C//DTD SVG 1.1//EN" "http://www.w3.org/Graphics/SVG/1.1/DTD/svg11.dtd">
<svg width="100%" height="100%" viewBox="0 0 1024 1024" version="1.1" xmlns="http://www.w3.org/2000/svg" xmlns:xlink="http://www.w3.org/1999/xlink" xml:space="preserve" xmlns:serif="http://www.serif.com/" style="fill-rule:evenodd;clip-rule:evenodd;stroke-linejoin:round;stroke-miterlimit:2;">
    <g transform="matrix(1.36015,0,0,1.36015,-150.532,-232.497)">
        <circle cx="473.609" cy="545.021" r="353.245"/>
    </g>
    <g transform="matrix(1.31561,0,0,1.31561,138.059,164.276)">
        <path d="M225.87,451.35L440.93,17.86L499.11,45.54L284.05,479L225.87,451.35ZM198.7,154.27L64.7,258.7L64.7,264.42L198.25,367.86L160.55,416.53L4.14,289.69L4.14,233.86L162.94,106.06L198.7,154.27Z" style="fill:white;fill-rule:nonzero;"/>
    </g>
    <g transform="matrix(1.36015,0,0,1.36015,651.408,637.517)">
        <path d="M246.94,27.638L194.193,2.241C188.088,-0.698 180.791,0.542 175.999,5.333L3.324,162.773C-1.321,167.008 -1.315,174.32 3.335,178.548L17.44,191.37C21.242,194.827 26.968,195.081 31.062,191.976L239.003,34.227C245.979,28.935 255.999,33.91 255.999,42.667L255.999,42.054C255.999,35.908 252.478,30.305 246.94,27.638Z" style="fill:rgb(0,101,169);fill-rule:nonzero;"/>
    </g>
    <g transform="matrix(1.36015,0,0,1.36015,651.408,637.517)">
        <path d="M246.94,228.362L194.193,253.759C188.088,256.698 180.791,255.458 175.999,250.667L3.324,93.227C-1.321,88.993 -1.315,81.68 3.335,77.452L17.44,64.63C21.242,61.173 26.968,60.919 31.062,64.025L239.003,221.773C245.979,227.065 255.999,222.09 255.999,213.333L255.999,213.946C255.999,220.092 252.478,225.695 246.94,228.362Z" style="fill:rgb(0,122,204);fill-rule:nonzero;"/>
    </g>
    <g transform="matrix(1.36015,0,0,1.36015,651.408,637.517)">
        <path d="M194.196,253.763C188.089,256.7 180.792,255.459 176,250.667C181.904,256.571 192,252.389 192,244.039L192,11.961C192,3.611 181.904,-0.571 176,5.333C180.792,0.541 188.089,-0.701 194.196,2.236L246.934,27.599C252.476,30.264 256,35.869 256,42.018L256,213.983C256,220.132 252.476,225.737 246.934,228.402L194.196,253.763Z" style="fill:rgb(31,156,240);fill-rule:nonzero;"/>
    </g>
    <g transform="matrix(1.36015,0,0,1.36015,651.408,637.517)">
        <g opacity="0.25">
            <path d="M181.378,254.252C185.41,255.822 190.008,255.722 194.077,253.764L246.783,228.402C252.322,225.737 255.844,220.132 255.844,213.983L255.844,42.018C255.844,35.869 252.322,30.264 246.784,27.599L194.077,2.237C188.737,-0.333 182.486,0.296 177.798,3.704C177.129,4.191 176.491,4.734 175.892,5.333L74.993,97.386L31.043,64.025C26.952,60.919 21.229,61.173 17.429,64.63L3.333,77.452C-1.315,81.68 -1.32,88.993 3.322,93.227L41.436,128L3.322,162.773C-1.32,167.008 -1.315,174.32 3.333,178.548L17.429,191.37C21.229,194.827 26.952,195.081 31.043,191.976L74.993,158.614L175.892,250.667C177.488,252.264 179.363,253.467 181.378,254.252ZM191.883,69.885L115.323,128L191.883,186.115L191.883,69.885Z" style="fill:url(#_Linear1);"/>
        </g>
    </g>
    <defs>
        <linearGradient id="_Linear1" x1="0" y1="0" x2="1" y2="0" gradientUnits="userSpaceOnUse" gradientTransform="matrix(1.55947e-14,254.68,-254.68,1.55947e-14,127.844,0.659988)"><stop offset="0" style="stop-color:white;stop-opacity:1"/><stop offset="1" style="stop-color:white;stop-opacity:0"/></linearGradient>
    </defs>
</svg>
